icons/picture-in-picture-2-line.svg

<svg xmlns="http://www.w3.org/2000/svg" width="24" height="24" fill="none"><g clip-path="url(#a)"><g><path fill="#121212" d="M21 3C21.2652 3 21.5196 3.10536 21.7071 3.29289C21.8946 3.48043 22 3.73478 22 4V11H20V5H4V19H10V21H3C2.73478 21 2.48043 20.8946 2.29289 20.7071C2.10536 20.5196 2 20.2652 2 20V4C2 3.73478 2.10536 3.48043 2.29289 3.29289C2.48043 3.10536 2.73478 3 3 3H21ZM21 13C21.2652 13 21.5196 13.1054 21.7071 13.2929C21.8946 13.4804 22 13.7348 22 14V20C22 20.2652 21.8946 20.5196 21.7071 20.7071C21.5196 20.8946 21.2652 21 21 21H13C12.7348 21 12.4804 20.8946 12.2929 20.7071C12.1054 20.5196 12 20.2652 12 20V14C12 13.7348 12.1054 13.4804 12.2929 13.2929C12.4804 13.1054 12.7348 13 13 13H21ZM20 15H14V19H20V15ZM6.707 6.293L8.957 8.543L11 6.5V12H5.5L7.543 9.957L5.293 7.707L6.707 6.293Z"/></g></g><defs><clipPath id="a"><rect width="24" height="24" fill="white"/></clipPath></defs></svg>

<svg width="24" height="24" fill="none" xmlns="http://www.w3.org/2000/svg"><g clip-path="url(#a)"><path d="M21 3a1 1 0 0 1 1 1v7h-2V5H4v14h6v2H3a1 1 0 0 1-1-1V4a1 1 0 0 1 1-1h18Zm0 10a1 1 0 0 1 1 1v6a1 1 0 0 1-1 1h-8a1 1 0 0 1-1-1v-6a1 1 0 0 1 1-1h8Zm-1 2h-6v4h6v-4ZM6.707 6.293l2.25 2.25L11 6.5V12H5.5l2.043-2.043-2.25-2.25 1.414-1.414Z" /></g><defs><clipPath id="a"><path fill="#fff" d="M0 0h24v24H0z"/></clipPath></defs></svg>
